X:1
T:Veni Creator (Dykes), LM
T:Veni Creator (Dykes), LM
T:John Bacchus Dykes, 1875
T:Public Domain Courtesy of the Cyber Hymnal™
C:John Bacchus Dykes, 1875
Z:Public Domain
Z:Courtesy of the Cyber Hymnal™
%%score ( 1 2 ) ( 3 4 )
L:1/8
M:3/4
K:C
V:1 treble 
V:2 treble 
V:3 bass 
V:4 bass 
V:1
 [EG]2 [CG]2 [CE]2 | (F2 D2) [FG]2 | G4 [FG]2 | [EG]6 | [EA]2 E2 [E^F]2 | ([EG]2 [Dd]2) [Ec]2 | %6
 (B2 G2) [^FA]2 | G6 | [EG]2 [Ec]2 [FA]2 | [EG]4 [Ec]2 x2 | B4 [^FA]2 | G4 G2 | c4 E2 | G4 C2 | %14
 E4 [B,D]2 | C6 |] %16
V:2
 x6 | C4 x2 | (E2 D2) x2 | x6 | x6 | x6 | G4 x2 | x6 | x6 | x8 | (^D2 E2) x2 | x6 | G2 F2 x2 | %13
 (D2 C2) x2 | (C2 B,A,) x2 | C6 |] %16
V:3
 [C,C]2 [C,E,]2 [C,G,]2 | A,2 [G,B,]2 [F,C]2 | C2 B,2 [G,,D]2 | [C,C]6 | [A,,C]2 [A,C]2 [A,C]2 | %5
 ([E,B,]2 [B,,G,]2) [C,G,]2 | (D2 B,2) [D,C]2 | [G,B,]6 | [C,C]2 [C,G,]2 (A,B,) | C2 z2 A,,2 x2 | %10
 [B,,^F,]2 [^C,E,]2 [D,B,]2 | [E,B,]4 [G,B,]2 | [A,C]4 [G,C]2 | ([F,B,]2 [E,C]2) (B,A,) | %14
 G,4 [G,,F,]2 | [C,E,]6 |] %16
V:4
 x6 | A,2 x4 | G,4 x2 | x6 | x6 | x6 | D,4 x2 | x6 | x4 C,2 | C,4 G,4 | x6 | x6 | x6 | x4 F,2 | %14
 G,4 x2 | x6 |] %16

